icons/lines/convert-threed-cube.svg

<svg xmlns="http://www.w3.org/2000/svg" width="24" height="24" viewBox="0 0 24 24" fill="none" stroke="currentColor" stroke-width="2" stroke-linecap="round" stroke-linejoin="round" >
  <path d="M22 15C22 18.87 18.87 22 15 22L16.05 20.25"/>
  <path d="M2 9C2 5.13 5.13 2 9 2L7.95 3.75"/>
  <path d="M13.7002 4.44995L17.6802 6.74994L21.6202 4.45996"/>
  <path d="M17.6802 10.82V6.73999"/>
  <path d="M16.7401 2.21L14.3401 3.53996C13.8001 3.83996 13.3501 4.59995 13.3501 5.21995V7.75999C13.3501 8.37999 13.7901 9.13998 14.3401 9.43998L16.7401 10.77C17.2501 11.06 18.0901 11.06 18.6101 10.77L21.0101 9.43998C21.5501 9.13998 22.0001 8.37999 22.0001 7.75999V5.21995C22.0001 4.59995 21.5601 3.83996 21.0101 3.53996L18.6101 2.21C18.1001 1.93 17.2601 1.93 16.7401 2.21Z"/>
  <path d="M2.3501 15.45L6.3201 17.7499L10.2701 15.46"/>
  <path d="M6.32031 21.82V17.74"/>
  <path d="M5.39 13.21L2.99001 14.54C2.45001 14.84 2 15.5999 2 16.2199V18.76C2 19.38 2.44001 20.14 2.99001 20.44L5.39 21.77C5.9 22.06 6.73999 22.06 7.25999 21.77L9.66 20.44C10.2 20.14 10.65 19.38 10.65 18.76V16.2199C10.65 15.5999 10.21 14.84 9.66 14.54L7.25999 13.21C6.73999 12.93 5.9 12.93 5.39 13.21Z"/>
  </svg>

<svg xmlns="http://www.w3.org/2000/svg" width="24" height="24" viewBox="0 0 24 24" fill="none" stroke="currentColor" stroke-width="2" stroke-linecap="round" stroke-linejoin="round">
  <path d="m13.7 4.45 3.98 2.3 3.94-2.29" />
  <path d="M14.34 3.54c-.54.3-.99 1.06-.99 1.68v2.54c0 .62.44 1.38.99 1.68l2.4 1.33c.51.29 1.35.29 1.87 0l2.4-1.33c.54-.3.99-1.06.99-1.68V5.22c0-.62-.44-1.38-.99-1.68l-2.4-1.33c-.51-.28-1.35-.28-1.87 0z" />
  <path d="M17.68 10.82V6.74" />
  <path d="M2 9a7 7 0 0 1 7-7L7.95 3.75" />
  <path d="m2.35 15.45 3.97 2.3 3.95-2.29" />
  <path d="M2.99 14.54c-.54.3-.99 1.06-.99 1.68v2.54c0 .62.44 1.38.99 1.68l2.4 1.33c.51.29 1.35.29 1.87 0l2.4-1.33c.54-.3.99-1.06.99-1.68v-2.54c0-.62-.44-1.38-.99-1.68l-2.4-1.33c-.52-.28-1.36-.28-1.87 0z" />
  <path d="M22 15a7 7 0 0 1-7 7l1.05-1.75" />
  <path d="M6.32 21.82v-4.08" />
</svg>
